images/svg/Logo.svg

<svg width="210" height="71" viewBox="0 0 210 71" fill="none" xmlns="http://www.w3.org/2000/svg">
<path d="M188.217 65.8584C188.608 65.8584 188.956 65.94 189.261 66.1033C189.567 66.2604 189.808 66.4992 189.985 66.8196C190.162 67.14 190.251 67.53 190.251 67.9894V70.9183H189.426V68.1073C189.426 67.6116 189.301 67.2337 189.051 66.9738C188.807 66.7078 188.474 66.5748 188.052 66.5748C187.619 66.5748 187.274 66.7138 187.017 66.9919C186.761 67.264 186.633 67.6599 186.633 68.1798V70.9183H185.809V68.1073C185.809 67.6116 185.683 67.2337 185.433 66.9738C185.189 66.7078 184.856 66.5748 184.435 66.5748C184.001 66.5748 183.656 66.7138 183.4 66.9919C183.143 67.264 183.015 67.6599 183.015 68.1798V70.9183H182.182V65.9491H183.015V66.6655C183.18 66.4055 183.4 66.206 183.675 66.067C183.955 65.928 184.264 65.8584 184.6 65.8584C185.021 65.8584 185.393 65.9521 185.717 66.1395C186.041 66.3269 186.282 66.602 186.44 66.9647C186.581 66.6141 186.813 66.3421 187.137 66.1486C187.46 65.9552 187.82 65.8584 188.217 65.8584Z" fill="#A78667"/>
<path d="M196.197 68.2433C196.197 68.4005 196.188 68.5667 196.17 68.742H192.158C192.189 69.2317 192.357 69.6156 192.662 69.8937C192.973 70.1657 193.349 70.3017 193.788 70.3017C194.149 70.3017 194.448 70.2201 194.686 70.0569C194.93 69.8876 195.101 69.664 195.199 69.3859H196.096C195.962 69.8634 195.693 70.2534 195.29 70.5556C194.887 70.8519 194.387 71 193.788 71C193.312 71 192.885 70.8942 192.506 70.6826C192.134 70.471 191.841 70.1718 191.627 69.7849C191.413 69.3919 191.306 68.9385 191.306 68.4247C191.306 67.9108 191.41 67.4604 191.618 67.0735C191.825 66.6866 192.115 66.3904 192.488 66.1849C192.866 65.9733 193.3 65.8675 193.788 65.8675C194.265 65.8675 194.686 65.9703 195.052 66.1758C195.419 66.3814 195.699 66.6655 195.895 67.0282C196.096 67.3849 196.197 67.7899 196.197 68.2433ZM195.336 68.071C195.336 67.7567 195.266 67.4876 195.126 67.264C194.985 67.0342 194.793 66.862 194.549 66.7471C194.31 66.6262 194.045 66.5657 193.752 66.5657C193.33 66.5657 192.97 66.6987 192.671 66.9647C192.378 67.2307 192.21 67.5995 192.167 68.071H195.336Z" fill="#A78667"/>
<path d="M198.131 66.874C198.302 66.5778 198.552 66.336 198.882 66.1486C199.211 65.9612 199.587 65.8675 200.008 65.8675C200.46 65.8675 200.866 65.9733 201.226 66.1849C201.587 66.3965 201.871 66.6957 202.078 67.0826C202.286 67.4635 202.39 67.9078 202.39 68.4156C202.39 68.9174 202.286 69.3647 202.078 69.7577C201.871 70.1506 201.584 70.4559 201.217 70.6735C200.857 70.8911 200.454 71 200.008 71C199.575 71 199.193 70.9063 198.863 70.7189C198.54 70.5315 198.296 70.2927 198.131 70.0025V70.9183H197.297V64.2081H198.131V66.874ZM201.538 68.4156C201.538 68.0408 201.461 67.7143 201.309 67.4363C201.156 67.1582 200.949 66.9466 200.686 66.8015C200.43 66.6564 200.146 66.5839 199.834 66.5839C199.529 66.5839 199.245 66.6594 198.982 66.8106C198.726 66.9557 198.518 67.1703 198.36 67.4544C198.207 67.7325 198.131 68.0559 198.131 68.4247C198.131 68.7995 198.207 69.1289 198.36 69.4131C198.518 69.6912 198.726 69.9058 198.982 70.0569C199.245 70.202 199.529 70.2745 199.834 70.2745C200.146 70.2745 200.43 70.202 200.686 70.0569C200.949 69.9058 201.156 69.6912 201.309 69.4131C201.461 69.1289 201.538 68.7965 201.538 68.4156Z" fill="#A78667"/>
<path d="M208.066 68.2433C208.066 68.4005 208.057 68.5667 208.038 68.742H204.027C204.057 69.2317 204.225 69.6156 204.531 69.8937C204.842 70.1657 205.218 70.3017 205.657 70.3017C206.017 70.3017 206.317 70.2201 206.555 70.0569C206.799 69.8876 206.97 69.664 207.068 69.3859H207.965C207.831 69.8634 207.562 70.2534 207.159 70.5556C206.756 70.8519 206.256 71 205.657 71C205.181 71 204.754 70.8942 204.375 70.6826C204.003 70.471 203.709 70.1718 203.496 69.7849C203.282 69.3919 203.175 68.9385 203.175 68.4247C203.175 67.9108 203.279 67.4604 203.487 67.0735C203.694 66.6866 203.984 66.3904 204.357 66.1849C204.735 65.9733 205.169 65.8675 205.657 65.8675C206.133 65.8675 206.555 65.9703 206.921 66.1758C207.287 66.3814 207.568 66.6655 207.764 67.0282C207.965 67.3849 208.066 67.7899 208.066 68.2433ZM207.205 68.071C207.205 67.7567 207.135 67.4876 206.994 67.264C206.854 67.0342 206.662 66.862 206.417 66.7471C206.179 66.6262 205.914 66.5657 205.621 66.5657C205.199 66.5657 204.839 66.6987 204.54 66.9647C204.247 67.2307 204.079 67.5995 204.036 68.071H207.205Z" fill="#A78667"/>
<path d="M210 64.2081V70.9183H209.166V64.2081H210Z" fill="#A78667"/>
<path fill-rule="evenodd" clip-rule="evenodd" d="M210.001 57.9573V7.86023H198.309V57.9573H210.001ZM108.823 18.209V8.93426H76.1035V56.4587H87.796V37.2323H106.842V28.2284H87.796V18.209H108.823ZM174.245 49.7923H188.298V57.8987H163.154V50.0798L176.626 33.9245H163.27V25.8181H188.007V33.6371L174.245 49.7923ZM118.086 32.2757C116.826 34.8107 116.195 37.7552 116.195 41.1092C116.195 44.4633 116.826 47.4273 118.086 50.0013C119.386 52.5363 121.139 54.5058 123.345 55.9098C125.551 57.2748 127.993 57.9573 130.671 57.9573C132.995 57.9573 135.024 57.4893 136.757 56.5533C138.53 55.6173 139.909 54.3888 140.893 52.8678V57.4893H150.997V24.8462H140.893V29.4677C139.948 27.9467 138.589 26.7182 136.816 25.7822C135.083 24.8462 133.055 24.3782 130.731 24.3782C128.013 24.3782 125.551 25.0607 123.345 26.4257C121.139 27.7907 119.386 29.7407 118.086 32.2757ZM138.766 35.2592C140.184 36.7022 140.893 38.6717 140.893 41.1677C140.893 43.6638 140.184 45.6333 138.766 47.0763C137.388 48.5193 135.694 49.2408 133.685 49.2408C131.676 49.2408 129.962 48.5193 128.544 47.0763C127.166 45.5943 126.476 43.6053 126.476 41.1092C126.476 38.6132 127.166 36.6632 128.544 35.2592C129.962 33.8162 131.676 33.0947 133.685 33.0947C135.694 33.0947 137.388 33.8162 138.766 35.2592Z" fill="#A78667"/>
<path fill-rule="evenodd" clip-rule="evenodd" d="M4.41365 63.3621C1.97606 63.3621 0 61.4056 0 58.9922V4.36988C0 1.95646 1.97606 0 4.41365 0H58.8217C61.2593 0 63.2354 1.95646 63.2354 4.36988V58.9922C63.2354 61.4056 61.2593 63.3621 58.8217 63.3621H4.41365ZM55.9315 2.91325H58.8217C59.6342 2.91325 60.2929 3.5654 60.2929 4.36988V58.9922C60.2929 59.7967 59.6342 60.4488 58.8217 60.4488H16.2959V37.4902H43.5469V28.7504H16.2959V16.9175H43.5469V8.17774H7.46861V60.4488H4.41365C3.60112 60.4488 2.94244 59.7967 2.94244 58.9922V4.36988C2.94244 3.5654 3.60112 2.91325 4.41365 2.91325H47.1042V49.0859H18.9452V57.8256L55.9315 57.8256V2.91325Z" fill="#4B372C"/>
</svg>

<svg width="210" height="71" fill="none" xmlns="http://www.w3.org/2000/svg"><path d="M188.217 65.858c.391 0 .739.082 1.044.245.306.157.547.396.724.717.177.32.266.71.266 1.17v2.928h-.825v-2.81c0-.496-.125-.874-.375-1.134-.244-.266-.577-.4-.999-.4-.433 0-.778.14-1.035.418-.256.272-.384.668-.384 1.188v2.738h-.824v-2.81c0-.496-.126-.874-.376-1.134-.244-.266-.577-.4-.998-.4-.434 0-.779.14-1.035.418-.257.272-.385.668-.385 1.188v2.738h-.833V65.95h.833v.716c.165-.26.385-.459.66-.598.28-.139.589-.209.925-.209.421 0 .793.094 1.117.281.324.188.565.463.723.826.141-.35.373-.623.697-.816.323-.194.683-.29 1.08-.29ZM196.197 68.243c0 .157-.009.324-.027.499h-4.012c.031.49.199.874.504 1.152.311.272.687.408 1.126.408.361 0 .66-.082.898-.245a1.34 1.34 0 0 0 .513-.671h.897a2.156 2.156 0 0 1-.806 1.17c-.403.296-.903.444-1.502.444-.476 0-.903-.106-1.282-.317a2.278 2.278 0 0 1-.879-.898c-.214-.393-.321-.846-.321-1.36 0-.514.104-.965.312-1.352.207-.386.497-.683.87-.888a2.618 2.618 0 0 1 1.3-.317c.477 0 .898.102 1.264.308.367.205.647.49.843.852.201.357.302.762.302 1.215Zm-.861-.172c0-.314-.07-.583-.21-.807a1.325 1.325 0 0 0-.577-.517 1.738 1.738 0 0 0-.797-.181 1.57 1.57 0 0 0-1.081.399c-.293.266-.461.635-.504 1.106h3.169ZM198.131 66.874a1.96 1.96 0 0 1 .751-.725 2.236 2.236 0 0 1 1.126-.281c.452 0 .858.105 1.218.317.361.212.645.51.852.898.208.38.312.825.312 1.333 0 .501-.104.949-.312 1.342a2.27 2.27 0 0 1-.861.916c-.36.217-.763.326-1.209.326a2.28 2.28 0 0 1-1.145-.281 1.933 1.933 0 0 1-.732-.716v.915h-.834v-6.71h.834v2.666Zm3.407 1.542a2.01 2.01 0 0 0-.229-.98 1.568 1.568 0 0 0-.623-.635 1.697 1.697 0 0 0-.852-.217 1.68 1.68 0 0 0-.852.227 1.63 1.63 0 0 0-.622.643 1.98 1.98 0 0 0-.229.97c0 .375.076.705.229.99.158.277.366.492.622.643.263.145.547.218.852.218.312 0 .596-.073.852-.218a1.63 1.63 0 0 0 .623-.644c.152-.284.229-.617.229-.997ZM208.066 68.243c0 .157-.009.324-.028.499h-4.011c.03.49.198.874.504 1.152.311.272.687.408 1.126.408.36 0 .66-.082.898-.245a1.34 1.34 0 0 0 .513-.671h.897a2.156 2.156 0 0 1-.806 1.17c-.403.296-.903.444-1.502.444-.476 0-.903-.106-1.282-.317a2.271 2.271 0 0 1-.879-.898c-.214-.393-.321-.846-.321-1.36 0-.514.104-.965.312-1.352.207-.386.497-.683.87-.888a2.618 2.618 0 0 1 1.3-.317c.476 0 .898.102 1.264.308.366.205.647.49.843.852.201.357.302.762.302 1.215Zm-.861-.172c0-.314-.07-.583-.211-.807a1.314 1.314 0 0 0-.577-.517 1.731 1.731 0 0 0-.796-.181 1.57 1.57 0 0 0-1.081.399c-.293.266-.461.635-.504 1.106h3.169ZM210 64.208v6.71h-.834v-6.71H210Z" fill="#A78667"/><path fill-rule="evenodd" clip-rule="evenodd" d="M210.001 57.957V7.86h-11.692v50.097h11.692ZM108.823 18.21V8.934h-32.72V56.46h11.693V37.232h19.046v-9.004H87.796V18.21h21.027Zm65.422 31.583h14.053V57.9h-25.144v-7.82l13.472-16.154H163.27v-8.107h24.737v7.82l-13.762 16.154Zm-56.159-17.516c-1.26 2.535-1.891 5.48-1.891 8.833 0 3.354.631 6.318 1.891 8.892 1.3 2.535 3.053 4.505 5.259 5.909 2.206 1.365 4.648 2.047 7.326 2.047 2.324 0 4.353-.468 6.086-1.404 1.773-.936 3.152-2.164 4.136-3.685v4.621h10.104V24.846h-10.104v4.622c-.945-1.521-2.304-2.75-4.077-3.686-1.733-.936-3.761-1.404-6.085-1.404-2.718 0-5.18.683-7.386 2.048-2.206 1.365-3.959 3.315-5.259 5.85Zm20.68 2.983c1.418 1.443 2.127 3.413 2.127 5.909s-.709 4.465-2.127 5.908c-1.378 1.443-3.072 2.165-5.081 2.165-2.009 0-3.723-.722-5.141-2.165-1.378-1.482-2.068-3.47-2.068-5.967 0-2.496.69-4.446 2.068-5.85 1.418-1.443 3.132-2.164 5.141-2.164s3.703.721 5.081 2.164Z" fill="#A78667"/><path fill-rule="evenodd" clip-rule="evenodd" d="M4.414 63.362C1.976 63.362 0 61.406 0 58.992V4.37C0 1.956 1.976 0 4.414 0h54.408c2.437 0 4.413 1.956 4.413 4.37v54.622c0 2.414-1.976 4.37-4.413 4.37H4.414ZM55.932 2.913h2.89c.812 0 1.47.652 1.47 1.457v54.622c0 .805-.658 1.457-1.47 1.457H16.296V37.49h27.25v-8.74h-27.25V16.918h27.25v-8.74H7.47v52.27H4.414a1.464 1.464 0 0 1-1.472-1.456V4.37c0-.805.66-1.457 1.472-1.457h42.69v46.173H18.945v8.74h36.986V2.913Z" fill="#4B372C"/></svg>
